X: 101
T: No_196_Song_Referring_to_a_Vision.krn
N: Derived from No_196_Song_Referring_to_a_Vision.krn
%%abc-version 2.0
%%abcx-abcm2ps-target-version 5.9.1 (29 Sep 2008)
%%abc-creator hum2abc beta
%%abcx-conversion-date 2019/03/15 08:29:13
%%humdrum-veritas 2464119690
%%humdrum-veritas-data 276918920
%%linebreak <none>
%%barnumbers 0
L: 1/8
M: 3/4
%%staves {1 2}
V: 1 clef=bass
V: 2 clef=bass
K: A
[V:1] [K:clef=bass][M:3/4]C2F2CB, ||  
[V:2] [K:clef=bass][M:3/4]z G,, (3!accent!G,, z G,, (3!accent!G,, z G,, ||  
[V:1] [M:4/4]C2CB,A,2B,A, | 
[V:2] [M:4/4]z8 | 
[V:1] F,3/F,/F,4F,2 ||  
[V:2] z8 ||  
[V:1] [M:2/4]F,G, F,E, | 
[V:2] [M:2/4]z4 | 
[V:1] F,2F,2 | 
[V:2] z4 | 
[V:1] F,E, F,E, ||  
[V:2] z4 ||  
[V:1] [M:3/4]C,3/C,/C,3C, | 
[V:2] [M:3/4]z6 | 
[V:1] C,6 |]  
[V:2] z6 |]  



